!!!COM: Palestrina, Giovanni Perluigi da
!!!OPR: Missa In festis Apostolorum (II)
!!!OMD: Gloria
!!!OTL: Domine Deus Agnus
**kern	**kern	**kern	**kern
*Ibass	*Itenor	*Itenor	*Icalto
!Bassus	!Tenor 2	!Tenor 1	!Altus
*clefF4	*clefGv2	*clefGv2	*clefG2
*k[]	*k[]	*k[]	*k[]
*D:dor	*D:dor	*D:dor	*D:dor
*M4/2	*M4/2	*M4/2	*M4/2
=60	=60	=60	=60
1AA	1A	0r	0r
2BB	1G	.	.
2C	.	.	.
=61	=61	=61	=61
2.D	1F	1A	2r
.	.	.	2A
4F	.	.	.
1E	1G	1G	2B
.	.	.	2c
=62	=62	=62	=62
1D	2A	1F	2.d
.	2A	.	.
.	.	.	4f
1r	2B	[1G	1e
.	[2c	.	.
=63	=63	=63	=63
1r	2c]	1G]	1d
.	2B	.	.
[1F	1c	[1A	2r
.	.	.	2f
=64	=64	=64	=64
1F]	1r	1A]	2.c
.	.	.	4d
2.C	1c	1r	4e
.	.	.	4f
.	.	.	[2e
4D	.	.	.
=65	=65	=65	=65
4E	2.G	0r	4e]
4F	.	.	4d
2.E	.	.	2c
.	4F	.	.
.	2G	.	2B
4D	.	.	.
2C	[2A	.	2A
=66	=66	=66	=66
1BB	2A]	1r	2.d
.	2G	.	.
.	.	.	4e
1AA	1A	1c	2f
.	.	.	[2e
=67	=67	=67	=67
0r	2.E	2.G	4e]
.	.	.	4d
.	.	.	2c
.	4D	4F	.
.	2E	2G	2B
.	2F	[2A	2A
=68	=68	=68	=68
0r	1E	2A]	1B
.	.	2G	.
.	4F	[1A	2A
.	4G	.	.
.	4A	.	[2c
.	4B	.	.
=69	=69	=69	=69
1r	4c	2A]	2c]
.	4A	.	.
.	1d	4G	4B
.	.	4F	4A
1G	.	1E	2B
.	2c#	.	2G
=70	=70	=70	=70
1F#	1d	1D	1A
[1G	1B	1r	2r
.	.	.	2d
=71	=71	=71	=71
2G]	2B	0r	2d
2C	2c	.	2e
2.D	2.A	.	2.f
4E	4G	.	4e
=72	=72	=72	=72
2F	2A	0r	4d
.	.	.	4c
1G	1B	.	2.e
.	.	.	4d
2F	2A	.	[2d
=73	=73	=73	=73
1E	1G	0r	2d]
.	.	.	2c#
[1D	[1A	.	2d
.	.	.	[2f
=74	=74	=74	=74
2D]	1A]	1d	2f]
4C	.	.	4e
4BB	.	.	4d
1AA	2r	1c#	1e
.	[2A	.	.
=75	=75	=75	=75
1D	2A]	1.d	1.f
.	2A	.	.
2D	2B	.	.
2E	[2c	2G	4e
.	.	.	4d
=76	=76	=76	=76
2.F	4c]	2.A	1c
.	4B	.	.
.	4A	.	.
4G	4G	4B	.
4A	4F	2c	1r
4G	4E	.	.
4F	4D	[2d	.
4E	4E	.	.
=77	=77	=77	=77
2D	4F	2d]	0r
.	4G	.	.
2AA	1A	2c	.
1E	.	1B	.
.	2G#	.	.
=78	=78	=78	=78
2AA	1A	2A	0r
2A	.	2c	.
2F	1d	2A	.
2G	.	2B	.
=79	=79	=79	=79
1E	1c#	1G	1g
2.D	[1d	1A	1f#
4C	.	.	.
=80	=80	=80	=80
2BB	2d]	4G	1.g
.	.	4F	.
2.C	2G	4E	.
.	.	4D	.
.	2G	2.E	.
4BB	.	.	.
2AA	2A	.	2c
.	.	4C	.
=81	=81	=81	=81
1GG	2.B	2G	2.d
.	.	2.d	.
.	4c	.	4e
1r	2d	.	2f
.	.	4d	.
.	[2e	2c	[2g
=82	=82	=82	=82
0r	4e]	1d	2g]
.	4d	.	.
.	1d	.	2f
.	.	1A	1e
.	2c#	.	.
=83	=83	=83	=83
2r	1d	2r	2d
2.D	.	2.A	2.f
.	1A	.	.
4D	.	4D	4f
2C#	.	2E	2e
=84	=84	=84	=84
0D	2A	0F	0d
.	2A	.	.
.	1A	.	.
=85	=85	=85	=85
[0AA	[0A	[0E	[0c#
=86	=86	=86	=86
0AA]	0A]	0E]	0c#]
*-	*-	*-	*-
!!!CDT: 1525/^1526/-1594/2/2
!!!OCY: Italia
!!!AGN: Mass (Paraphrase)
!!!AST: renaissance, vocal
!!!ASW: Gregorian Mass
!!!PWK: Masses, Book Mantuan II
!!!RNB: Cadence finals: A
!!!YOR: Le Opere Complete, v. 19, p. 1
!!!YOO: Rome, Italy: Fratelli Scalera
!!!END: 1992//
!!!EED: John Miller
!!!YEC: Copyright 2000, John Miller
!!!YEN: United States of America
!!!YEM: Rights to all derivative electronic formats reserved.
!!!YEM: Refer to licensing agreement for further details.
!!!YEM: This file must be accompanied by the licensing agreement.
!!!YEM: A copy of the licensing agreement may be found at http://www.music-cog.ohio-state.edu/HumdrumDatabases/Palestrina/license.txt
!!!EMD: converted to Humdrum by Bret Aarden
